X: 1
T: Efthalia
C: Campbell "Cammy" Kaynor
R: march, reel
Z: 2020 John Chambers <jc:trillian.mit.edu>
S: Youtube 2020-3-31
M: 2/4
L: 1/16
K: Em
EF |\
"Em"G2E2 z2EF | GFE2 z2GA | "B7"BcBA B2c2 | B6 EF |\
"Em"G2E2 z2EF | GFE2 z2E2 | "B7"FGFE ^D2C2 | B,6 EF |
"Em"G2E2 z2EF | GFE2 z2GA | "B7"BcBA B2c2 | B6 cd |\
"Am"e2c2 z2AB | "D7"cBA2 A2d2 | "G"B3A G2F2 | G6 |]
BA |\
"G"G2B2 z2BA | G2d2 d3d | "Em"efg2 f2e2 | "B7"b6 BA |\
"G"G2B2 z2BA | G2d2 d3d | "Em"efg2 f2e2 | "B7"^d6 ef |
"Em"g2e2 z2cd | "C"edc2 c2de | "D"f2d2 z2Bc | "Bm"dcB2 B2cd |\
"C"e2c2 z2AB | "Am"cBA2 A2d2 | "B7"B3A G2F2 | "Em"E6 |]

%%sep 1 1 500

